frontend/public/svg/emojis/surprised-emoji.svg

<svg width="159" height="156" viewBox="0 0 159 156" fill="none" xmlns="http://www.w3.org/2000/svg">
<path d="M96.0369 98.6787C95.376 100.913 94.451 105.443 92.6999 109.626C90.2493 115.482 85.596 119.012 79.0784 118.966C72.5 118.92 67.7199 115.477 65.0682 109.526C61.5342 101.593 61.8592 93.6874 66.6758 86.3573C71.3867 79.1877 83.9898 77.3594 90.8276 82.6032C95.3882 86.0987 95.6834 91.1996 96.0369 98.6787ZM89.6128 96.9045C90.032 92.2031 88.8144 88.4199 85.4951 87.289C81.8385 86.0465 78.1765 82.2531 73.9551 85.5596C69.0878 89.3727 68.07 94.7363 68.4892 101.092C75.0338 95.878 82.0789 95.6992 89.6128 96.9025V96.9045ZM80.0528 101.889L79.6676 101.045C76.8994 102.327 74.0608 103.483 71.4152 104.984C70.7935 105.336 70.3453 107.015 70.631 107.779C72.4329 112.602 79.2429 115.092 83.3166 112.03C85.4598 110.419 86.5812 107.451 88.1637 105.095C85.7984 104.026 83.4386 102.945 81.0605 101.906C80.7285 101.838 80.3868 101.832 80.0528 101.889Z" fill="black"/>
<path d="M49.6072 64.8085C50.2539 62.2888 50.4259 60.5513 51.1565 59.0941C51.787 57.8359 53.02 56.0523 54.0438 56.0137C55.7559 56.069 57.3775 56.7955 58.5584 58.0364C60.9663 60.7124 60.3265 66.2299 57.3856 68.3182C56.2033 69.1572 53.8428 69.7544 52.8602 69.1308C51.3123 68.1523 50.4753 66.0497 49.6072 64.8085Z" fill="black"/>
<path d="M109.12 59.4047C108.45 61.753 108.375 63.3598 107.577 64.4358C106.803 65.482 105.187 66.703 104.132 66.5479C103.353 66.3965 102.614 66.0811 101.966 65.6228C101.317 65.1645 100.774 64.5737 100.371 63.8894C99.0165 60.996 98.4971 57.6096 100.862 55.0445C101.803 54.0254 104.79 53.4194 105.645 54.1067C107.331 55.4644 108.181 57.8608 109.12 59.4047Z" fill="black"/>
<path d="M54.6717 40.2887C52.0864 41.4081 49.5119 42.5524 46.9103 43.6331C46.0629 43.9356 45.1993 44.1909 44.3236 44.3977C44.1462 43.2852 43.5029 41.9734 43.8774 41.0958C45.164 38.0724 47.796 36.5149 50.9759 36.1574C52.9596 35.8411 54.9859 35.9131 56.9422 36.3693C58.1137 36.7154 58.8985 38.3697 59.8574 39.4368C58.7976 40.0023 57.7677 40.6382 56.6639 41.0986C56.1161 41.2097 55.5527 41.221 55.0009 41.1319L54.6717 40.2887Z" fill="black"/>
<path d="M114.016 39.1274C112.255 38.4712 110.913 37.6377 109.518 37.5307C107.253 37.4657 104.986 37.5584 102.734 37.8083C101.766 37.876 100.808 38.0677 99.8452 38.2038C100.006 36.9625 99.7856 34.9129 100.397 34.6244C102.734 33.5207 105.396 32.2491 107.829 32.4353C110.426 32.6344 112.952 34.3117 115.39 35.5739C115.936 35.8569 116.437 37.3608 116.159 37.8348C115.755 38.5261 114.627 38.7936 114.016 39.1274Z" fill="black"/>
<path d="M2.85816 56.8154C-4.15166 84.3665 1.98666 108.671 21.1154 129.067C21.6138 129.594 22.121 130.12 22.6288 130.624C32.9039 140.899 45.7026 147.244 55.8443 151.659C60.1963 153.559 82.5306 155.868 88.5728 154.968C124.484 149.605 148.116 129.351 156.347 95.4649C157.919 88.8272 158.702 82.0272 158.679 75.206C158.718 59.1373 151.952 40.4562 137.999 26.465C136.563 25.2779 135.131 24.0468 133.747 22.8551C130.745 20.2738 127.642 17.6026 124.396 15.3233C99.5981 -2.12951 73.8333 -2.22769 47.8187 7.02823C24.2682 15.4032 9.14209 32.1564 2.85816 56.8154ZM47.9196 15.2785C70.7449 5.793 93.6467 4.1191 115.983 18.3256C120.068 20.9259 130.955 29.7268 132.67 31.0479L132.78 31.1299L132.871 31.2301C141.585 40.4711 151.564 57.368 151.344 74.7375C151.271 82.1647 150.266 89.5533 148.351 96.7299C142.677 117.352 129.112 132.382 106.881 142.663C84.2811 153.484 51.8701 142.544 43.2466 136.851C33.715 130.335 25.3749 122.228 18.591 112.885C7.95167 97.8214 5.56406 76.1697 11.2812 56.3753C13.9571 47.2359 18.6332 38.8065 24.9706 31.6983C31.308 24.5901 39.1478 18.9812 47.9216 15.2785H47.9196Z" fill="black"/>
</svg>

<svg xmlns="http://www.w3.org/2000/svg" width="159" height="156" fill="none" viewBox="0 0 159 156"><path fill="#000" d="M96.037 98.679c-.661 2.234-1.586 6.764-3.337 10.947-2.45 5.856-7.104 9.386-13.622 9.34-6.578-.046-11.358-3.489-14.01-9.44-3.534-7.933-3.209-15.839 1.608-23.169 4.71-7.17 17.314-8.998 24.152-3.754 4.56 3.496 4.855 8.597 5.209 16.076m-6.424-1.775c.419-4.7-.799-8.484-4.118-9.615-3.657-1.243-7.318-5.036-11.54-1.73-4.867 3.814-5.885 9.177-5.466 15.533 6.545-5.214 13.59-5.393 21.124-4.19zm-9.56 4.985-.385-.844c-2.769 1.282-5.607 2.438-8.253 3.939-.622.352-1.07 2.031-.784 2.795 1.802 4.823 8.612 7.313 12.686 4.251 2.143-1.611 3.264-4.579 4.847-6.935-2.366-1.069-4.725-2.15-7.103-3.189a2.7 2.7 0 0 0-1.008-.017M49.607 64.808c.647-2.52.819-4.257 1.55-5.714.63-1.258 1.863-3.042 2.887-3.08a6.52 6.52 0 0 1 4.514 2.022c2.408 2.676 1.769 8.194-1.172 10.282-1.183.84-3.543 1.436-4.526.813-1.548-.979-2.385-3.081-3.253-4.323m59.513-5.403c-.67 2.348-.745 3.955-1.543 5.03-.774 1.047-2.39 2.268-3.445 2.113a5.6 5.6 0 0 1-3.761-2.659c-1.355-2.893-1.874-6.28.491-8.845.941-1.019 3.928-1.625 4.783-.937 1.686 1.357 2.536 3.754 3.475 5.298M54.672 40.289c-2.586 1.12-5.16 2.263-7.762 3.344a24 24 0 0 1-2.586.765c-.178-1.113-.821-2.425-.447-3.302 1.287-3.024 3.919-4.581 7.099-4.939a15.5 15.5 0 0 1 5.966.212c1.172.346 1.956 2 2.915 3.068-1.06.565-2.09 1.201-3.193 1.662a4.6 4.6 0 0 1-1.663.033zm59.344-1.162c-1.761-.656-3.103-1.49-4.498-1.596a49 49 0 0 0-6.784.277c-.968.068-1.926.26-2.889.396.161-1.242-.06-3.291.552-3.58 2.337-1.103 4.999-2.375 7.432-2.189 2.597.2 5.123 1.877 7.561 3.139.546.283 1.047 1.787.769 2.26-.404.692-1.532.96-2.143 1.293"/><path fill="#000" d="M2.858 56.815c-7.01 27.552-.871 51.856 18.257 72.252a69 69 0 0 0 1.514 1.557c10.275 10.275 23.074 16.62 33.215 21.035 4.352 1.9 26.687 4.209 32.729 3.309 35.911-5.363 59.543-25.617 67.774-59.503a86.6 86.6 0 0 0 2.332-20.259c.039-16.069-6.727-34.75-20.68-48.741a279 279 0 0 1-4.252-3.61c-3.002-2.581-6.105-5.252-9.351-7.532C99.598-2.13 73.833-2.227 47.819 7.028c-23.55 8.375-38.677 25.128-44.96 49.787M47.92 15.28c22.825-9.486 45.727-11.16 68.063 3.047 4.085 2.6 14.972 11.4 16.687 12.722l.11.082.091.1c8.714 9.241 18.693 26.138 18.473 43.507a88.7 88.7 0 0 1-2.993 21.993c-5.674 20.622-19.239 35.652-41.47 45.933-22.6 10.821-55.01-.119-63.634-5.812a100.7 100.7 0 0 1-24.656-23.966c-10.64-15.064-13.027-36.715-7.31-56.51a64.18 64.18 0 0 1 36.64-41.096z"/></svg>
